X:1
T:Always and Ever
T:Always and Ever
T:Traditional Gaelic Melody
T:Richard W. Adams, 1997
T:© 1997 Richard W. Adams. Reproduce or publish freely for Christian worship or devotions. Courtesy of the Cyber Hymnal™
T:© 1997 Richard W. Adams. Reproduce or publish freely for Christian worship or devotions. Courtesy of the Cyber Hymnal™
C:Traditional Gaelic Melody
Z:© 1997 Richard W. Adams. Reproduce or publish freely for Christian worship or devotions.
Z:Courtesy of the Cyber Hymnal™
%%score ( 1 2 ) ( 3 4 ) ( 5 6 )
L:1/8
Q:1/4=130
M:9/4
K:C
V:1 treble 
V:2 treble 
V:3 treble 
V:4 treble 
V:5 bass 
V:6 bass 
V:1
 C2 E2 G2 | c6 [GB]2 [FA]2 [EG]2 x10 | (A3 [FB] [EA]2) [EG]6 C2 [CD]2 [CE]2 x | %3
w: 1.~Al- ways and|ev- er, God reigns|e- * * ter- nal, Cease- less,|
w: 2.~In the be-|gin- ning, ere the|first * * star birth, There was|
w: 3.~Down through the|ag- es, se- crets|un- * * lock- ing, To save|
w: 4.~Al- ways and|ev- er, you can|be * * with Him In par-|
 [EG]6 A6 [DG]3 [DE] C2 | D12 [EG]2 E2 G2 | [Ec]6 A6 [DG]3 E C2 | C6 D6 E2 D2 E2 | %7
w: un- chang- ing, An- cient|of Days. From choirs|be- low and an- gels|su- per- nal Al- pha-|
w: the Fa- ther, Spir- it|and Son. Mak- er,|Cre- at- or, heav- en|and ea- rth Sprang from|
w: a peo- ple fet- tered|with sin, He sent|the Word. He’s ten- der-|ly knock- ing: O- pen|
w: a- dise, there no more|to grieve. Prais- ing|for- ev- er, Sav- ior|and Sov- ereign Through end-|
 G6 A6 [CD]2 [CE]3 [B,D] | C12 |] %9
w: O- me- ga hears end-|less|
w: His will— the plan was|be-|
w: your heart and let Him|come|
w: less ag- es— on- ly|be-|
V:2
 x6 | (E4 G2) d6 x10 | E4 x15 | x6 (E4 D2) x6 | D12 x6 | x6 (C2 E2 F2) x6 | x18 | x18 | C12 |] %9
V:3
 C2- E2 [B,G]2 | c6 ([FA]2 [EG]2) d6 (B2 A2 G2) | A6 [EG]6 D2 E2 x3 | G6 A6 G3 [G,E] x2 | %4
 D6- D6 (G2 E2) [B,DG]2 | [C-E-c]6 [CEA]4 D2 [EG]3 E C2 | C6- D6 [CE]2 [B,D]2 [CE]2 | %7
 G6 A6 D2 E3 [B,D] | C12 |] %9
V:4
 x2 C2 x2 | ([CE]2 [DF]4 E2) [DF]6 x8 | (E3 F E2) C2- x5 C6 | ([B,D]4 C2) (E2 E2 D2) C2- x4 | %4
 C2 B,2 A,2 B,6 C4 x2 | x18 | x6 (C2 A,2 B,2) x6 | (D2 E2 D2) C6- C4 x2 | x12 |] %9
V:5
 [C,E,]4 [D,F,]2 | ([E,G,]2 [D,F,]2 [E,G,]2) [F,A,]6 [E,G,]2 [F,A,]2 [G,B,]2 x4 | %2
 (C3 D C2) B,6 A,4 G,2 x | B,2 D2 x14 | G,6- G,6 [E,G,]4 [D,F,]2 | %5
 ([C,E,]2 [D,F,]2 [E,G,]2) (A,4 B,2) [E,C]4 x2 | ([G,_B,]2 [F,A,]2 [E,G,]2) [D,F,]6 [C,G,]6 | %7
 G,6- G,2 F,2 [G,,E,]2 A,2 [D,A,]3 [G,,F,] | [C,E,]12 |] %9
V:6
 x6 | x22 | x19 | E,4 E,2 (D,2 C,2 B,,2) C,4 E,2 | x6 G,,4 F,2 x6 | x6 F,6 A,2 x4 | x18 | %7
 (B,,2 C,2 B,,2) A,,4 F,2 x6 | x12 |] %9

